X:363
T: IM FLIEDERBUSCH EIN VOEGLEIN SASS
N: B0432
O: Europa, Mitteleuropa, Deutschland
R: Liebes - Lied, Liebes - Lust
M: 2/4
L: 1/16
K: D
A2 | A2d2F2A2 | A2GFG2
BB | B2A2B3A | AGFGA2
A2 | A2F2F2A2 | A2GFG2
BB | B2G2e3d | dcBcd2z
d | d3cB2^G2 | A3Bc2
c2 | dcdcB2^G2 | A^GABc2
A2 | G3GF2F2 | A3AG2
G2 | d6B2 | A6F2 | A4G2G2 | G4z2

@@@ Tune index: 2166
